X:13
T:Hardyman the Fiddler
Z: id:dc-slipjig-13
M:9/8
L:1/8
K:D Mixolydian
A2G FDE F2G|A3 AGA cAG|A2G FDE F2G|Add ded cAG:|!
Add d2e f3|Add ded cAG|Add d2e f2g|agf ged cAG|!
Add d2e f3|Add ded cAG|dcA d2e f2g|agf ged cAG|]!

